src/assets/duotone/MusicSquareAdd.svg

<svg width="24" height="24" viewBox="0 0 24 24"  xmlns="http://www.w3.org/2000/svg">
<path d="M19.21 15.01C18.12 14.94 17 15.34 16.17 16.17C14.61 17.73 14.61 20.26 16.17 21.83C16.7 22.36 17.35 22.71 18.04 22.88C18.42 22.98 18.82 23.01 19.22 22.99C20.17 22.95 21.1 22.5701 21.83 21.8401C22.86 20.8101 23.21 19.36 22.88 18.05C22.72 17.36 22.36 16.71 21.83 16.18C21.11 15.45 20.17 15.06 19.21 15.01ZM21.24 18.98C21.24 19.19 21.16 19.37 21.02 19.51C20.88 19.65 20.7 19.73 20.49 19.73H19.75V20.51C19.75 20.72 19.67 20.9 19.53 21.04C19.39 21.18 19.21 21.26 19 21.26C18.59 21.26 18.25 20.92 18.25 20.51V19.73H17.5C17.09 19.73 16.75 19.39 16.75 18.98C16.75 18.57 17.09 18.23 17.5 18.23H18.25V17.52C18.25 17.11 18.59 16.77 19 16.77C19.41 16.77 19.75 17.11 19.75 17.52V18.23H20.49C20.91 18.23 21.24 18.57 21.24 18.98Z" />
<path opacity="0.4" d="M16.34 21.97C16.04 21.71 15.78 21.4 15.58 21.06C15.21 20.46 15 19.75 15 19C15 16.79 16.79 15 19 15C20.18 15 21.25 15.51 21.97 16.33C21.98 16.34 21.98 16.35 21.99 16.35C21.99 16.29 22 16.24 22 16.19V7.81C22 4.17 19.83 2 16.19 2H7.81C7.53 2 7.26 2.00999 7 2.04999C3.85 2.33999 2 4.45 2 7.81V16.19C2 19.55 3.85 21.66 7 21.95C7.26 21.99 7.53 22 7.81 22H16.19C16.25 22 16.3 21.99 16.36 21.99C16.36 21.98 16.35 21.98 16.34 21.97Z" />
<path d="M13.7798 5.3C13.4598 5.05 12.8798 4.81001 11.9598 5.06001L8.97978 5.88002C8.08978 6.11002 7.50978 6.86 7.50978 7.8V9.55V11.71C7.27978 11.63 7.02979 11.57 6.76979 11.57C5.52979 11.57 4.52979 12.58 4.52979 13.81C4.52979 15.04 5.53979 16.05 6.76979 16.05C7.98979 16.05 8.98978 15.06 9.00978 13.85C9.00978 13.84 9.01979 13.83 9.01979 13.82V10.12L12.9898 9.03999V10.72C12.7598 10.64 12.5098 10.58 12.2398 10.58C10.9998 10.58 9.99979 11.59 9.99979 12.82C9.99979 14.06 11.0098 15.06 12.2398 15.06C13.4598 15.06 14.4598 14.07 14.4798 12.85C14.4798 12.84 14.4898 12.83 14.4898 12.81V8.05V6.97999C14.4798 6.21999 14.2398 5.65 13.7798 5.3ZM6.75978 14.55C6.34978 14.55 6.01979 14.22 6.01979 13.81C6.01979 13.4 6.34978 13.07 6.75978 13.07C7.16978 13.07 7.49979 13.4 7.49979 13.81C7.49979 14.22 7.16978 14.55 6.75978 14.55ZM12.2298 13.55C11.8198 13.55 11.4898 13.22 11.4898 12.81C11.4898 12.4 11.8198 12.07 12.2298 12.07C12.6398 12.07 12.9698 12.4 12.9698 12.81C12.9698 13.22 12.6398 13.55 12.2298 13.55Z" />
</svg>

<?xml version="1.0" encoding="UTF-8"?>
<svg width="24" height="24" viewBox="0 0 24 24" xmlns="http://www.w3.org/2000/svg">
 <path d="m19.21 15.01c-1.09-0.07-2.21 0.33-3.04 1.16-1.56 1.56-1.56 4.09 0 5.66 0.53 0.53 1.18 0.88 1.87 1.05 0.38 0.1 0.78 0.13 1.18 0.11 0.95-0.04 1.88-0.4199 2.61-1.1499 1.03-1.03 1.38-2.4801 1.05-3.7901-0.16-0.69-0.52-1.34-1.05-1.87-0.72-0.73-1.66-1.12-2.62-1.17zm2.03 3.97c0 0.21-0.08 0.39-0.22 0.53s-0.32 0.22-0.53 0.22h-0.74v0.78c0 0.21-0.08 0.39-0.22 0.53s-0.32 0.22-0.53 0.22c-0.41 0-0.75-0.34-0.75-0.75v-0.78h-0.75c-0.41 0-0.75-0.34-0.75-0.75s0.34-0.75 0.75-0.75h0.75v-0.71c0-0.41 0.34-0.75 0.75-0.75s0.75 0.34 0.75 0.75v0.71h0.74c0.42 0 0.75 0.34 0.75 0.75z"/>
 <path d="m16.34 21.97c-0.3-0.26-0.56-0.57-0.76-0.91-0.37-0.6-0.58-1.31-0.58-2.06 0-2.21 1.79-4 4-4 1.18 0 2.25 0.51 2.97 1.33 0.01 0.01 0.01 0.02 0.02 0.02 0-0.06 0.01-0.11 0.01-0.16v-8.38c0-3.64-2.17-5.81-5.81-5.81h-8.38c-0.28 0-0.55 0.00999-0.81 0.04999-3.15 0.29-5 2.4-5 5.76v8.38c0 3.36 1.85 5.47 5 5.76 0.26 0.04 0.53 0.05 0.81 0.05h8.38c0.06 0 0.11-0.01 0.17-0.01 0-0.01-0.01-0.01-0.02-0.02z" opacity=".4"/>
 <path d="m13.78 5.3c-0.32-0.25-0.9-0.48999-1.82-0.23999l-2.98 0.82001c-0.89 0.23-1.47 0.97998-1.47 1.92v3.91c-0.23-0.08-0.47999-0.14-0.73999-0.14-1.24 0-2.24 1.01-2.24 2.24s1.01 2.24 2.24 2.24c1.22 0 2.22-0.99 2.24-2.2 0-0.01 0.01001-0.02 0.01001-0.03v-3.7l3.97-1.08v1.68c-0.23-0.08-0.48-0.14-0.75-0.14-1.24 0-2.24 1.01-2.24 2.24 0 1.24 1.01 2.24 2.24 2.24 1.22 0 2.22-0.99 2.24-2.21 0-0.01 0.01-0.02 0.01-0.04v-5.83c-0.01-0.76-0.25-1.33-0.71-1.68zm-7.02 9.25c-0.41 0-0.73999-0.33-0.73999-0.74s0.32999-0.74 0.73999-0.74 0.74001 0.33 0.74001 0.74-0.33001 0.74-0.74001 0.74zm5.47-1c-0.41 0-0.74-0.33-0.74-0.74s0.33-0.74 0.74-0.74 0.74 0.33 0.74 0.74-0.33 0.74-0.74 0.74z"/>
</svg>
